!!!ONM: Child Ballad No. 26, Tune No. 1
!!!PPG: p. 309
**kern
*M4/4
{4g
=1
4g
4a
4b-
4dd
=2
4cc
4b-
2cc}
!! Second phrase:
=3
{4.g
8a
4b-
4cc
=4
4.dd
8ee
2dd}
!! Third phrase:
{4dd
=5
4g
4a
4b-
4g
=6
4a
4b-
4cc}
!! Fourth phrase:
{8b-
8cc
=7
2.dd}
!! Fifth phrase:
{4dd
=8
4dd
4ff
4ee
4dd
=9
4cc
4b-
4.a}
!! Sixth phrase:
{8a
=10
4b-
4dd
4cc
4b-
=11
4a
4f#
4d}
!! Seventh phrase:
{8b-
8cc
=12
2dd
8cc
8b-
8a
8g
=13
8f
8g
4a
2g}
==
*-
!!!YOR: The traditional tunes of the Child ballads
!!!OVM: Vol. 1
!!!PPE: Bronson, Bertrand H.
!!!PSR: Princeton University Press
!!!PSP: Princeton, New Jersey 
!!!PSD: 1959/// 
!!!ENC: Huron, David
!!!EMD: Paul von Hippel turned freeform comments into reference records (1998/10/27/)
!!!EEV: Version 1.1
